X:21
T:Country Dance. RDO.21
M:2/4
L:1/8
Q:1/2=100
S:Robert D. Owen MS,Indiana,1826.
R:.Misc.
O:Indiana,USA
A:New Harmony
Z:vmp.Chris Partington
K:Bb
F|BABc|Bdfd|cBcd|fedc|BABc|Bdfe|decd|B2B2:|!
|:cecB|Acfz|edec|f2c2|cdcB|Acf2|gfga|f4:|!
|:b2ff|f2dd|d2BB|F4|BABd|cBcd|edcB|A2F2|!
b2ff|f2dd|d2BB|F4|BABd|cABc|ABcA|B4:|

